X: 5
T:J'm'en vas chantant riant
R:Bourre  2 temps
C:Trad.
O:France
A:Centre
S:80 airs  danser du centre France - La Chavanne - 1991
S:05
Z:Transcrit et/ou corrig par Michel BELLON - 2005-05-15
Z:Pour toute observation mailto:galouvielle@free.fr
M:2/4
L:1/8
K:Eb
G | cc de | d3e | f>f ed | f2eG | cc de | d2c2 | =BG AB |1 c3 :|2 c4 |:
e2 dd | c3e | c>e c=B | c=B GG | dd de | c2d2 | e/2d/2c d=B | c4 :|
%%footer $D   Galouvielle-MBe 2005 \nBourre  2 temps France
